naStart/img/movie-icon.svg

<svg width="32" height="32" viewBox="0 0 32 32" fill="none" xmlns="http://www.w3.org/2000/svg">
<g clip-path="url(#clip0)">
<path d="M1.29846 18.6616V28.6651C1.29846 30.5045 2.79641 31.9994 4.63537 31.9994H28.6626C30.5034 31.9994 31.9995 30.5039 31.9995 28.6651V18.6616H1.29846Z" fill="#8E8E8E"/>
<path d="M15.803 3.0498L10.808 4.23397L14.9927 10.3868L20.4026 9.15695L15.803 3.0498Z" fill="#8E8E8E"/>
<path d="M9.41947 4.56348L4.0365 5.8383L8.17681 11.9342L13.5948 10.7031L9.41947 4.56348Z" fill="#8E8E8E"/>
<path d="M31.9788 5.82026L30.8431 1.51499C30.581 0.467125 29.5079 -0.191232 28.4492 0.0501032L23.9641 1.11423L28.2195 7.38331L31.4807 6.6418C31.6584 6.60178 31.8105 6.49112 31.9037 6.33606C31.9969 6.18101 32.0238 5.99594 31.9788 5.82026Z" fill="#8E8E8E"/>
<path d="M22.5744 1.4436L17.2208 2.71342L21.8285 8.83433L26.8223 7.69893L22.5744 1.4436Z" fill="#8E8E8E"/>
<path d="M8.02483 11.9944L5.88928 17.3281H11.1258L13.2614 11.9944H8.02483Z" fill="#8E8E8E"/>
<path d="M14.6992 11.9944L12.563 17.3281H17.7995L19.9357 11.9944H14.6992Z" fill="#8E8E8E"/>
<path d="M31.3324 11.9944H28.0474L25.9119 17.3294H32V12.6609C32 12.2914 31.7022 11.9944 31.3324 11.9944Z" fill="#8E8E8E"/>
<path d="M21.373 11.9944L19.2374 17.3281H24.4727L26.6095 11.9944H21.373Z" fill="#8E8E8E"/>
<path d="M2.64806 6.16919L1.55995 6.42678C1.02997 6.54682 0.581339 6.86819 0.297268 7.3296C0.0131958 7.79226 -0.0712749 8.33683 0.0607497 8.86326L1.2984 13.7506V17.3281H4.45135L6.45487 12.3251L6.78086 12.252L2.64806 6.16919Z" fill="#8E8E8E"/>
</g>
<defs>
<clipPath id="clip0">
<rect width="32" height="32" fill="white"/>
</clipPath>
</defs>
</svg>

<svg width="32" height="32" fill="none" xmlns="http://www.w3.org/2000/svg"><g clip-path="url(#clip0)" fill="#8E8E8E"><path d="M1.298 18.662v10.003A3.34 3.34 0 004.635 32h24.028A3.339 3.339 0 0032 28.665V18.662H1.297zM15.803 3.05l-4.995 1.184 4.185 6.153 5.41-1.23-4.6-6.107zM9.42 4.563L4.036 5.838l4.14 6.096 5.418-1.23-4.176-6.14zM31.979 5.82l-1.136-4.305A2.017 2.017 0 0028.45.05l-4.485 1.064 4.256 6.27 3.26-.742c.178-.04.33-.15.424-.306a.674.674 0 00.075-.516zm-9.405-4.376l-5.353 1.27 4.607 6.12L26.822 7.7l-4.248-6.255zM8.025 11.994l-2.136 5.334h5.237l2.135-5.334H8.025zm6.675 0l-2.137 5.334h5.236l2.137-5.334h-5.237zm16.632 0h-3.285l-2.135 5.335H32v-4.668a.665.665 0 00-.668-.667zm-9.959 0l-2.136 5.334h5.236l2.137-5.334h-5.237zM2.648 6.17l-1.088.257c-.53.12-.979.441-1.263.903a1.986 1.986 0 00-.236 1.533l1.237 4.888v3.577h3.153l2.004-5.003.326-.073-4.133-6.083z"/></g><defs><clipPath id="clip0"><path fill="#fff" d="M0 0h32v32H0z"/></clipPath></defs></svg>
